X:1 
T:Come All You Worthy Christian Men
B:One Hundred English Folksongs, Ed C Sharp, ISBN 0-486-23192-5
Z:Cecil Sharp
F:http://www.folkinfo.org/songs
M:4/4  
L:1/8
K:G
(EF) |G2 G2 A2 (GA) |B3 c (BA) (GA) |B3 G (AG) E2 | E4 z2
w:Come_ all you worth-y_ Chris-tian men,_ That_ dwell up-on_ this land
 (EF) |G2 G2 A2 (GA) |B3 c (BA) (GA) |B3 G (AG) E2 | E4 z2 
w:Don't_ spend your time in_ ri-ot-ing:_ Re-* mem-ber you're_ but man
(Bc) |d2 B2 e2 e2 |(dc) B2 B2 (EF) |G2 G2 A2 (GA) | B6
w:Be_ watch-ful for your lat-* ter end Be_ read-y when you're_ called
 (EF) |G2 G2 A2 (GA) |B3 c (BA) (GA) |B3 G (AG) E2 | E4 z4 |]
w:There are ma-ny chang-es_ in this world;_ Some_ rise while oth-* ers fall 